X: 7
T: Elizabeth Kelly's Delight
R: slip jig
M: 9/8
L: 1/8
K: Edor
|:e3 efe edB|e2 Bd2 B ABd|e3 efe edB|d3 d2 B ABd|
e3 efe edB|e2 Bd2 B ABd|e3 efe edB|d3 d2 B ABd||
|:g2 e fed edB|gfe fdB ABd|g2 e fed edB|d3 d2 B ABd|
g2 e fed edB|gfe fdB ABd|g2 e fed edB|d3 d2 B ABd||


Tune 953	Setting 14149

